X: 8393
T: Covsdale
R: slip jig
M: 9/8
K: Amajor
C2E AEB AEC|D2E AEB AED|C2E AEB cBA|dBc ABG {B}AED|
C2E AEB AEC|D2E AEB AED|C2E AEB cBA|dBc ABG AB/c/d||
ee/e/e ed{B}c AGE|FF/F/F FGA BGE|FGA GAB EDC|DD/D/D EFA B3|
e3 {f}ed{B}c AGE|FF/F/F FGA Bcd|ee/e/e age f/e/dc|dBc ABG AED||

